src/assets/images/toolbox/sequelize.svg

<svg
  width="28"
  height="32"
  viewBox="0 0 28 32"
  fill="transparent"
  xmlns="http://www.w3.org/2000/svg">
  <path
    fill="#2F406A"
    d="M23.9545 10.2047V21.7323L14.0478 27.5276L13.9582 27.6081V31.9165L14.0478 32L28 24.0315V7.96853L27.8682 7.93663L23.9347 10.111L23.9545 10.2047Z"
  />
  <path
    fill="#2379BD"
    d="M4.10922 21.8267L14.0478 27.5276V32L0 24V8L0.144156 7.97848L4.06623 10.2331L4.10922 10.3622V21.8267Z"
  />
  <path
    fill="#03AFEF"
    d="M4.10922 10.3622L0 8L14.016 0L28 7.96853L23.9545 10.2047L14.016 4.59842L4.10922 10.3622Z"
  />
  <path
    fill="#2F406A"
    d="M13.8773 20.5083L13.7697 20.3998V16.0712L13.8773 16.0162L13.9034 15.9095L17.6566 13.7448L17.7715 13.7702V18.2303L13.8773 20.5083Z"
  />
  <path
    fill="#2379BD"
    d="M9.91812 18.3692V13.7382L10.027 13.7329L13.8448 15.9297L13.8773 16.0162V20.5083L9.91812 18.3692Z"
  />
  <path
    fill="#03AFEF"
    d="M13.8123 11.46L9.91812 13.7382L13.8773 16.0162L17.7715 13.7702L13.8123 11.46Z"
  />
  <path
    fill="#2F406A"
    d="M9.03109 23.332L8.92358 23.2234V18.8947L9.03109 18.8399L9.05734 18.7331L12.8104 16.5684L12.9253 16.5938V21.0538L9.03109 23.332Z"
  />
  <path
    fill="#2379BD"
    d="M5.07205 21.1929V16.5617L5.18077 16.5564L8.99861 18.7534L9.03109 18.8399V23.332L5.07205 21.1929Z"
  />
  <path
    fill="#03AFEF"
    d="M8.96623 14.2836L5.07205 16.5617L9.03109 18.8399L12.9253 16.5938L8.96623 14.2836Z"
  />
  <path
    fill="#2F406A"
    d="M19.0695 23.4389L18.9619 23.3304V19.0017L19.0695 18.9468L19.0957 18.8401L22.8489 16.6754L22.9637 16.7008V21.1608L19.0695 23.4389Z"
  />
  <path
    fill="#2379BD"
    d="M15.1104 21.2998V16.6687L15.2192 16.6634L19.037 18.8603L19.0695 18.9468V23.4389L15.1104 21.2998Z"
  />
  <path
    fill="#03AFEF"
    d="M19.0046 14.3906L15.1104 16.6687L19.0695 18.9468L22.9637 16.7008L19.0046 14.3906Z"
  />
  <path
    fill="#2F406A"
    d="M14.2233 26.2626L14.1158 26.154V21.8253L14.2233 21.7705L14.2496 21.6636L18.0028 19.499L18.1175 19.5244V23.9844L14.2233 26.2626Z"
  />
  <path
    fill="#2379BD"
    d="M10.2643 24.1235V19.4923L10.373 19.487L14.191 21.6839L14.2233 21.7705V26.2626L10.2643 24.1235Z"
  />
  <path
    fill="#03AFEF"
    d="M14.1585 17.2141L10.2643 19.4923L14.2233 21.7705L18.1175 19.5244L14.1585 17.2141Z"
  />
  <path
    fill="#2F406A"
    d="M13.8773 14.3692L13.7697 14.2605V9.9319L13.8773 9.87707L13.9034 9.77022L17.6566 7.6056L17.7715 7.63101V12.091L13.8773 14.3692Z"
  />
  <path
    fill="#2379BD"
    d="M9.91812 12.2301V7.59889L10.027 7.59359L13.8448 9.79044L13.8773 9.87707V14.3692L9.91812 12.2301Z"
  />
  <path
    fill="#03AFEF"
    d="M13.8123 5.32072L9.91812 7.59889L13.8773 9.87707L17.7715 7.63101L13.8123 5.32072Z"
  />
  <path
    fill="#2F406A"
    d="M9.03109 17.1927L8.92358 17.0842V12.7556L9.03109 12.7006L9.05734 12.5939L12.8104 10.4291L12.9253 10.4546V14.9147L9.03109 17.1927Z"
  />
  <path
    fill="#2379BD"
    d="M5.07205 15.0536V10.4225L5.18077 10.4172L8.99861 12.6141L9.03109 12.7006V17.1927L5.07205 15.0536Z"
  />
  <path
    fill="#03AFEF"
    d="M8.96623 8.14437L5.07205 10.4225L9.03109 12.7006L12.9253 10.4546L8.96623 8.14437Z"
  />
  <path
    fill="#2F406A"
    d="M19.0695 17.2997L18.9619 17.1911V12.8625L19.0695 12.8076L19.0957 12.7008L22.8489 10.5361L22.9637 10.5615V15.0216L19.0695 17.2997Z"
  />
  <path
    fill="#2379BD"
    d="M15.1104 15.1606V10.5295L15.2192 10.5242L19.037 12.7211L19.0695 12.8076V17.2997L15.1104 15.1606Z"
  />
  <path
    fill="#03AFEF"
    d="M19.0046 8.25133L15.1104 10.5295L19.0695 12.8076L22.9637 10.5615L19.0046 8.25133Z"
  />
  <path
    fill="#2F406A"
    d="M14.2233 20.1233L14.1158 20.0148V15.6861L14.2233 15.6312L14.2496 15.5245L18.0028 13.3598L18.1175 13.3852V17.8452L14.2233 20.1233Z"
  />
  <path
    fill="#2379BD"
    d="M10.2643 17.9842V13.3531L10.373 13.3478L14.191 15.5447L14.2233 15.6312V20.1233L10.2643 17.9842Z"
  />
  <path
    fill="#03AFEF"
    d="M14.1585 11.0749L10.2643 13.3531L14.2233 15.6312L18.1175 13.3852L14.1585 11.0749Z"
  />
</svg>

<svg xmlns="http://www.w3.org/2000/svg" xmlns:xlink="http://www.w3.org/1999/xlink" width="28" height="32"
  fill="transparent" xmlns:v="https://vecta.io/nano">
  <style>
    <![CDATA[
    .B {
      fill: #2f406a
    }

    .C {
      fill: #2379bd
    }

    .D {
      fill: #03afef
    }
    ]]>
  </style>
  <path d="M23.955 10.205v11.528l-9.907 5.795-.09.081v4.308l.09.084L28 24.032V7.969l-.132-.032-3.934 2.174.02.094z"
    class="B" />
  <path d="M4.109 21.827l9.939 5.701V32L0 24V8l.144-.022 3.922 2.255.043.129v11.465z" class="C" />
  <path d="M4.109 10.362L0 8l14.016-8L28 7.969l-4.046 2.236-9.938-5.606-9.907 5.764z" class="D" />
  <use xlink:href="#B" class="B" />
  <path d="M9.918 18.369v-4.631l.109-.005 3.818 2.197.033.087v4.492l-3.959-2.139z" class="C" />
  <use xlink:href="#C" class="D" />
  <path d="M9.031 23.332l-.108-.109v-4.329l.108-.055.026-.107 3.753-2.165.115.025v4.46l-3.894 2.278z" class="B" />
  <path d="M5.072 21.193v-4.631l.109-.005 3.818 2.197.032.087v4.492l-3.959-2.139z" class="C" />
  <use xlink:href="#C" x="-4.846" y="2.824" class="D" />
  <use xlink:href="#B" x="5.193" y="2.931" class="B" />
  <path d="M15.11 21.3v-4.631l.109-.005 3.818 2.197.033.087v4.492L15.11 21.3z" class="C" />
  <use xlink:href="#C" x="5.193" y="2.931" class="D" />
  <path d="M14.223 26.263l-.107-.109v-4.329l.107-.055.026-.107 3.753-2.165.115.025v4.46l-3.894 2.278z" class="B" />
  <path d="M10.264 24.124v-4.631l.109-.005 3.818 2.197.032.087v4.492l-3.959-2.139z" class="C" />
  <use xlink:href="#C" x="0.347" y="5.754" class="D" />
  <path d="M13.877 14.369l-.108-.109V9.932l.108-.055.026-.107 3.753-2.165.115.025v4.46l-3.894 2.278z" class="B" />
  <path d="M9.918 12.23V7.599l.109-.005 3.818 2.197.033.087v4.492L9.918 12.23z" class="C" />
  <path d="M13.812 5.321L9.918 7.599l3.959 2.278 3.894-2.246-3.959-2.31z" class="D" />
  <use xlink:href="#B" x="-4.846" y="-3.315" class="B" />
  <path d="M5.072 15.054v-4.631l.109-.005 3.818 2.197.032.086v4.492l-3.959-2.139z" class="C" />
  <use xlink:href="#C" x="-4.846" y="-3.316" class="D" />
  <path d="M19.07 17.3l-.108-.109v-4.329l.108-.055.026-.107 3.753-2.165.115.025v4.46L19.07 17.3z" class="B" />
  <path d="M15.11 15.161V10.53l.109-.005 3.818 2.197.033.087V17.3l-3.959-2.139z" class="C" />
  <path d="M19.005 8.251L15.11 10.53l3.959 2.278 3.894-2.246-3.959-2.31z" class="D" />
  <path d="M14.223 20.123l-.107-.108v-4.329l.107-.055.026-.107 3.753-2.165.115.025v4.46l-3.894 2.278z" class="B" />
  <path d="M10.264 17.984v-4.631l.109-.005 3.818 2.197.032.086v4.492l-3.959-2.139z" class="C" />
  <use xlink:href="#C" x="0.347" y="-0.385" class="D" />
  <defs>
    <path id="B" d="M13.877 20.508l-.108-.108v-4.329l.108-.055.026-.107 3.753-2.165.115.025v4.46l-3.894 2.278z" />
    <path id="C" d="M13.812 11.46l-3.894 2.278 3.959 2.278 3.894-2.246-3.959-2.31z" />
  </defs>
</svg>
